storage/app/icons/phosphoricons/light/lockers-light.svg

<svg xmlns="http://www.w3.org/2000/svg" fill="currentColor" viewBox="0 0 256 256"><path d="M190 72a6 6 0 0 1-6 6h-24a6 6 0 0 1 0-12h24a6 6 0 0 1 6 6m-6 26h-24a6 6 0 0 0 0 12h24a6 6 0 0 0 0-12M72 78h24a6 6 0 0 0 0-12H72a6 6 0 0 0 0 12m24 20H72a6 6 0 0 0 0 12h24a6 6 0 0 0 0-12m126-50v176a6 6 0 0 1-12 0v-18h-76v18a6 6 0 0 1-12 0v-18H46v18a6 6 0 0 1-12 0V48a14 14 0 0 1 14-14h160a14 14 0 0 1 14 14M122 194V46H48a2 2 0 0 0-2 2v146Zm12 0h76V48a2 2 0 0 0-2-2h-74Z"/></svg>

<svg xmlns="http://www.w3.org/2000/svg" viewBox="0 0 256 256" fill="currentColor"><path d="M190,72a6,6,0,0,1-6,6H160a6,6,0,0,1,0-12h24A6,6,0,0,1,190,72Zm-6,26H160a6,6,0,0,0,0,12h24a6,6,0,0,0,0-12ZM72,78H96a6,6,0,0,0,0-12H72a6,6,0,0,0,0,12ZM96,98H72a6,6,0,0,0,0,12H96a6,6,0,0,0,0-12ZM222,48V224a6,6,0,0,1-12,0V206H134v18a6,6,0,0,1-12,0V206H46v18a6,6,0,0,1-12,0V48A14,14,0,0,1,48,34H208A14,14,0,0,1,222,48ZM122,194V46H48a2,2,0,0,0-2,2V194Zm12,0h76V48a2,2,0,0,0-2-2H134Z"/></svg>
